icons/moodle/moodle-plain.svg

<svg xmlns="http://www.w3.org/2000/svg" viewBox="0 0 128 128"><path fill="#F7931E" d="M116.659 45.061c-5.075-3.895-12.286-5.754-21.087-5.754-9.648 0-16.383 2.199-19.939 6.77-1.626-1.76-3.659-3.162-5.963-4.229-2.444-2.479-4.981-3.986-7.574-4.717 5.754-3.695 12.497-8.684 21.036-15.426-34.694 3.555-51.459 6.94-81.245 24.881 1.219 0 2.396.006 3.546.02-.711 5.572-.341 13.883-.208 16.342-3.991 10.197-.406 18.488 2.579 25.945 0-8.979.44-16.244-2.109-25.557l20.25-16.051c-.326 3.025-.277 6.555.305 10.807l.063.021-.232 1.162.918.162c-.227 1.506.001 3.073.001 4.749v41.814h18v-39.617c0-1.982.65-3.719 1.053-5.217 2.765-.465 5.64-1.256 8.167-2.338l.182.447c.162-.203.357-.447.515-.66 2.034-.908 4.166-2.014 6.001-3.316 3.26 1.687 5.082 5.355 5.082 11.084v39.617h21v-39.617c0-8.123 2.4-12.182 9-12.182s9 4.059 9 12.182v39.617000000000004h21v-41.814c0-8.463-3.419-14.725-9.341-19.125z"/></svg>

<svg version="1.1" xmlns="http://www.w3.org/2000/svg" xmlns:xlink="http://www.w3.org/1999/xlink" viewBox="0 0 128 128">
<path fill="#F7931E" d="M116.659,45.061c-5.075-3.895-12.286-5.754-21.087-5.754c-9.648,0-16.383,2.199-19.939,6.77
	c-1.626-1.76-3.659-3.162-5.963-4.229c-2.444-2.479-4.981-3.986-7.574-4.717c5.754-3.695,12.497-8.684,21.036-15.426
	C48.438,25.26,31.673,28.645,1.887,46.586c1.219,0,2.396,0.006,3.546,0.02c-0.711,5.572-0.341,13.883-0.208,16.342
	C1.234,73.145,4.819,81.436,7.804,88.893c0-8.979,0.44-16.244-2.109-25.557l20.25-16.051c-0.326,3.025-0.277,6.555,0.305,10.807
	c0.022,0.008,0.043,0.014,0.063,0.021c-0.077,0.385-0.155,0.777-0.232,1.162c0.181,0.063,0.736,0.104,0.918,0.162
	C26.772,60.943,27,62.51,27,64.186V106h18V66.383c0-1.982,0.65-3.719,1.053-5.217c2.765-0.465,5.64-1.256,8.167-2.338
	c0.014,0.158,0.175,0.289,0.182,0.447c0.162-0.203,0.357-0.447,0.515-0.66c2.034-0.908,4.166-2.014,6.001-3.316
	C64.178,56.986,66,60.654,66,66.383V106h21V66.383c0-8.123,2.4-12.182,9-12.182s9,4.059,9,12.182v38.59V106h21V64.186
	C126,55.723,122.581,49.461,116.659,45.061z"/>
</svg>
